X:410
T: Maguire's Dream
S: "Collection of the Dance Music of Ireland" (P. McNulty)
Z: B.Black
L: 1/8
M: 4/4
R: reel
K: D
E | FEDE FGAB | cedc BE (3EEE | FEDE FAdB | cAGE FDDE |
FEDE FGAB|cedc BEEd|(3cdc (3BcB (3ABA GF|EFGE FD D :|
g | fgfe defd | (3efg fd ecAg | fgfe defg | efga fddg |
fgfe defd | (3efg fd ecAG | FGAB cdef | gfeg fd d2 :|
